src/assets/svgs/Apache Kafka.svg

<svg xmlns="http://www.w3.org/2000/svg" viewBox="0 0 128 128"><path d="M86.758 70.89c-4.992 0-9.465 2.208-12.528 5.68l-7.851-5.547a21.275 21.275 0 001.312-7.32c0-2.531-.46-4.95-1.27-7.203l7.837-5.488c3.062 3.457 7.523 5.652 12.5 5.652 9.207 0 16.703-7.48 16.703-16.672 0-9.195-7.496-16.672-16.703-16.672-9.211 0-16.707 7.477-16.707 16.672 0 1.645.25 3.23.699 4.735l-7.84 5.488a21.578 21.578 0 00-13.36-7.746v-9.43c7.567-1.586 13.27-8.293 13.27-16.312C62.82 7.53 55.324.055 46.117.055c-9.21 0-16.707 7.476-16.707 16.672 0 7.91 5.555 14.539 12.969 16.238v9.547c-10.117 1.773-17.84 10.59-17.84 21.191 0 10.652 7.797 19.5 17.992 21.211V95c-7.492 1.64-13.12 8.309-13.12 16.273 0 9.196 7.495 16.672 16.706 16.672 9.207 0 16.703-7.476 16.703-16.672 0-7.964-5.629-14.632-13.117-16.273V84.914a21.592 21.592 0 0013.133-7.625l7.902 5.586a16.45 16.45 0 00-.687 4.688c0 9.195 7.496 16.671 16.707 16.671 9.207 0 16.703-7.476 16.703-16.671 0-9.196-7.496-16.672-16.703-16.672zm0-38.984c4.465 0 8.097 3.63 8.097 8.086 0 4.453-3.632 8.082-8.097 8.082-4.469 0-8.102-3.629-8.102-8.082 0-4.457 3.633-8.086 8.102-8.086zm-48.742-15.18c0-4.456 3.632-8.081 8.101-8.081 4.465 0 8.098 3.625 8.098 8.082 0 4.457-3.633 8.082-8.098 8.082-4.469 0-8.101-3.625-8.101-8.082zm16.199 94.547c0 4.457-3.633 8.082-8.098 8.082-4.469 0-8.101-3.625-8.101-8.082 0-4.457 3.632-8.082 8.101-8.082 4.465 0 8.098 3.625 8.098 8.082zm-8.102-36.296c-6.226 0-11.293-5.059-11.293-11.274 0-6.219 5.067-11.277 11.293-11.277 6.23 0 11.297 5.058 11.297 11.277 0 6.215-5.066 11.274-11.297 11.274zm40.645 20.668c-4.469 0-8.102-3.625-8.102-8.082 0-4.458 3.633-8.083 8.102-8.083 4.465 0 8.097 3.625 8.097 8.082 0 4.458-3.632 8.083-8.097 8.083zm0 0" fill="#231f20"/></svg>

<svg width="128" height="128" viewBox="0 0 128 128" fill="none" xmlns="http://www.w3.org/2000/svg">
<path d="M86.758 70.89C81.766 70.89 77.293 73.098 74.23 76.57L66.379 71.023C67.2427 68.6789 67.6868 66.2011 67.691 63.703C67.691 61.172 67.231 58.753 66.421 56.5L74.258 51.012C77.32 54.469 81.781 56.664 86.758 56.664C95.965 56.664 103.461 49.184 103.461 39.992C103.461 30.797 95.965 23.32 86.758 23.32C77.547 23.32 70.051 30.797 70.051 39.992C70.051 41.637 70.301 43.222 70.75 44.727L62.91 50.215C59.5648 46.0732 54.8064 43.3144 49.55 42.469V33.039C57.117 31.453 62.82 24.746 62.82 16.727C62.82 7.52999 55.324 0.0549927 46.117 0.0549927C36.907 0.0549927 29.41 7.53099 29.41 16.727C29.41 24.637 34.965 31.266 42.379 32.965V42.512C32.262 44.285 24.539 53.102 24.539 63.703C24.539 74.355 32.336 83.203 42.531 84.914V95C35.039 96.64 29.411 103.309 29.411 111.273C29.411 120.469 36.906 127.945 46.117 127.945C55.324 127.945 62.82 120.469 62.82 111.273C62.82 103.309 57.191 96.641 49.703 95V84.914C54.8595 84.0464 59.526 81.337 62.836 77.289L70.738 82.875C70.284 84.3963 70.0526 85.9754 70.051 87.563C70.051 96.758 77.547 104.234 86.758 104.234C95.965 104.234 103.461 96.758 103.461 87.563C103.461 78.367 95.965 70.89 86.758 70.89ZM86.758 31.906C91.223 31.906 94.855 35.536 94.855 39.992C94.855 44.445 91.223 48.074 86.758 48.074C82.289 48.074 78.656 44.445 78.656 39.992C78.656 35.535 82.289 31.906 86.758 31.906ZM38.016 16.726C38.016 12.27 41.648 8.64499 46.117 8.64499C50.582 8.64499 54.215 12.27 54.215 16.727C54.215 21.184 50.582 24.809 46.117 24.809C41.648 24.809 38.016 21.183 38.016 16.726ZM54.215 111.273C54.215 115.73 50.582 119.355 46.117 119.355C41.648 119.355 38.016 115.73 38.016 111.273C38.016 106.816 41.648 103.191 46.117 103.191C50.582 103.191 54.215 106.816 54.215 111.273ZM46.113 74.977C39.887 74.977 34.82 69.918 34.82 63.703C34.82 57.484 39.887 52.426 46.113 52.426C52.343 52.426 57.41 57.484 57.41 63.703C57.41 69.918 52.344 74.977 46.113 74.977ZM86.758 95.645C82.289 95.645 78.656 92.02 78.656 87.563C78.656 83.105 82.289 79.48 86.758 79.48C91.223 79.48 94.855 83.105 94.855 87.562C94.855 92.02 91.223 95.645 86.758 95.645Z" fill="white"/>
</svg>
